X: 35612
T: Sadegurer Khosid
R: barndance
M: 4/4
K: Aminor
|:z2 E2|"Am" c3 B A2 A2|z2 cB AcBA|"E" B3 A ^G2 G2|"Dm" ^GAGF "E" E4|
"E7" ^GEGB "Am" AEAc|"E7" BEBd "Am" cAce|"Dm" d2 d2 defd|"E7" e4 edcB||
"Am" c3 B A2 A2|z2 cB AcBA|"E" B3 A ^G2 G2|"Dm" ^GAGF "E" E4|
"E7" e4 d4|c4 B4|"Am" A2 A2 "E7" cBA^G|"Am" A4:|
K: A Major
|:zEAB|"A" cdcd c2 BA|B2 c2 z4|cdcd c2BA|Bc A2 z4|
"A" cdcd c2 BA|B2 c2 z4|"Bm" B2 B2 "E7" AGFG|1 "A" A4 z4:|K: a minor
[2 "Am" A4||
|:z4|"Am" e8|e8|e4 e4|e4 e4|
z2 e2 e2 e2|"Dm" d2 z2 d4|"Am" cdcB A^GAB|c2 z2 e4|
z2 e2 e2 e2|"Dm" d2 z2 d4|"C" cGGc "Bb" c_BBA|"Am" A4 z4:|

